flaticon/emoticons/pirate-1.svg

<svg xmlns="http://www.w3.org/2000/svg" width="32" height="32" viewBox="0 0 24 24">
    <path d="M17.636719 18.964844C17.558594 19.035156 17.519531 19.140625 17.519531 19.246094 17.519531 19.355469 17.558594 19.457031 17.636719 19.53125 17.707031 19.605469 17.8125 19.648438 17.921875 19.648438 18.023438 19.648438 18.128906 19.605469 18.199219 19.53125 18.277344 19.457031 18.320312 19.351562 18.320312 19.246094 18.320312 19.140625 18.277344 19.039062 18.199219 18.964844 18.050781 18.816406 17.785156 18.816406 17.636719 18.964844zM17.800781 15.574219C17.722656 15.648438 17.679688 15.75 17.679688 15.855469 17.679688 15.964844 17.722656 16.066406 17.796875 16.140625 17.871094 16.214844 17.976562 16.257812 18.078125 16.257812 18.183594 16.257812 18.289062 16.214844 18.363281 16.140625 18.441406 16.0625 18.480469 15.964844 18.480469 15.855469 18.480469 15.75 18.441406 15.648438 18.363281 15.574219 18.210938 15.425781 17.941406 15.425781 17.800781 15.574219zM17.714844 17.273438C17.640625 17.34375 17.601562 17.445312 17.601562 17.550781 17.601562 17.660156 17.644531 17.761719 17.714844 17.835938 17.792969 17.910156 17.894531 17.953125 18 17.953125 18.105469 17.953125 18.207031 17.910156 18.285156 17.835938 18.355469 17.761719 18.398438 17.65625 18.398438 17.550781 18.398438 17.449219 18.355469 17.34375 18.285156 17.269531 18.132812 17.121094 17.867188 17.121094 17.714844 17.273438zM16.378906 18.179688C16.308594 18.253906 16.265625 18.359375 16.265625 18.464844 16.265625 18.566406 16.308594 18.667969 16.378906 18.742188 16.457031 18.820312 16.558594 18.863281 16.664062 18.863281 16.773438 18.863281 16.875 18.820312 16.949219 18.742188 17.019531 18.671875 17.0625 18.566406 17.0625 18.464844 17.0625 18.355469 17.019531 18.253906 16.949219 18.179688 16.800781 18.03125 16.527344 18.03125 16.378906 18.179688zM15.441406 20.117188C15.363281 20.191406 15.324219 20.292969 15.324219 20.398438 15.324219 20.507812 15.363281 20.609375 15.441406 20.683594 15.515625 20.757812 15.617188 20.800781 15.722656 20.800781 15.828125 20.800781 15.933594 20.757812 16.003906 20.683594 16.078125 20.609375 16.125 20.503906 16.125 20.398438 16.125 20.296875 16.082031 20.191406 16.007812 20.117188 15.859375 19.96875 15.585938 19.96875 15.441406 20.117188zM19.117188 17.621094C19.039062 17.691406 19 17.796875 19 17.902344 19 18.007812 19.039062 18.113281 19.117188 18.183594 19.1875 18.257812 19.292969 18.304688 19.398438 18.304688 19.507812 18.304688 19.609375 18.261719 19.679688 18.1875 19.753906 18.113281 19.800781 18.007812 19.800781 17.902344 19.800781 17.796875 19.757812 17.691406 19.683594 17.621094 19.535156 17.472656 19.265625 17.472656 19.117188 17.621094zM6.320312 19.507812C6.246094 19.582031 6.203125 19.683594 6.203125 19.792969 6.203125 19.894531 6.246094 20 6.320312 20.074219 6.394531 20.148438 6.5 20.191406 6.605469 20.191406 6.707031 20.191406 6.8125 20.148438 6.886719 20.070312 6.960938 20 7.003906 19.894531 7.003906 19.792969 7.003906 19.683594 6.960938 19.582031 6.886719 19.507812 6.738281 19.359375 6.472656 19.355469 6.320312 19.507812zM6.441406 16.800781C6.546875 16.800781 6.652344 16.757812 6.722656 16.683594 6.800781 16.609375 6.84375 16.503906 6.84375 16.398438 6.84375 16.296875 6.800781 16.191406 6.722656 16.117188 6.570312 15.96875 6.308594 15.96875 6.160156 16.117188 6.085938 16.191406 6.039062 16.296875 6.039062 16.398438 6.039062 16.503906 6.085938 16.609375 6.160156 16.679688 6.230469 16.757812 6.335938 16.800781 6.441406 16.800781zM6.523438 18.496094C6.628906 18.496094 6.730469 18.453125 6.804688 18.378906 6.878906 18.304688 6.925781 18.199219 6.925781 18.097656 6.925781 17.988281 6.878906 17.882812 6.808594 17.8125 6.65625 17.660156 6.382812 17.664062 6.238281 17.8125 6.164062 17.882812 6.125 17.988281 6.125 18.097656 6.125 18.199219 6.164062 18.304688 6.238281 18.375 6.3125 18.453125 6.414062 18.496094 6.523438 18.496094zM7.570312 18.722656C7.5 18.800781 7.460938 18.898438 7.460938 19.003906 7.460938 19.109375 7.5 19.210938 7.574219 19.289062 7.648438 19.359375 7.753906 19.402344 7.859375 19.402344 7.964844 19.402344 8.070312 19.359375 8.140625 19.289062 8.214844 19.210938 8.261719 19.113281 8.261719 19.003906 8.261719 18.898438 8.214844 18.796875 8.140625 18.722656 7.992188 18.570312 7.726562 18.570312 7.570312 18.722656zM8.515625 20.660156C8.445312 20.730469 8.398438 20.835938 8.398438 20.945312 8.398438 21.046875 8.441406 21.148438 8.515625 21.222656 8.589844 21.300781 8.691406 21.339844 8.800781 21.339844 8.902344 21.339844 9.007812 21.300781 9.085938 21.222656 9.15625 21.148438 9.199219 21.046875 9.199219 20.945312 9.199219 20.835938 9.15625 20.734375 9.085938 20.660156 8.9375 20.507812 8.660156 20.511719 8.515625 20.660156zM4.839844 18.160156C4.769531 18.234375 4.722656 18.339844 4.722656 18.445312 4.722656 18.546875 4.769531 18.652344 4.839844 18.726562 4.914062 18.804688 5.019531 18.84375 5.125 18.84375 5.226562 18.84375 5.332031 18.804688 5.40625 18.726562 5.480469 18.65625 5.523438 18.550781 5.523438 18.445312 5.523438 18.335938 5.480469 18.234375 5.40625 18.164062 5.257812 18.011719 4.992188 18.011719 4.839844 18.160156zM15.957031 16.71875C15.886719 16.421875 15.738281 16.230469 15.515625 16.140625 15.113281 15.980469 14.703125 16.246094 14.128906 16.613281 13.613281 16.945312 12.972656 17.359375 12.222656 17.539062 11.472656 17.71875 10.714844 17.640625 10.101562 17.578125 9.425781 17.507812 8.9375 17.457031 8.652344 17.785156 8.496094 17.964844 8.453125 18.203125 8.523438 18.496094 8.671875 19.125 9.28125 19.796875 10.109375 20.253906 10.761719 20.613281 11.460938 20.800781 12.140625 20.800781 12.425781 20.800781 12.707031 20.769531 12.980469 20.703125 13.90625 20.480469 14.746094 19.878906 15.339844 19 15.867188 18.21875 16.105469 17.34375 15.957031 16.71875zM12.792969 19.925781C12.308594 20.042969 11.847656 20.011719 11.457031 19.921875 11.496094 19.847656 11.5625 19.765625 11.652344 19.683594 11.898438 19.464844 12.273438 19.285156 12.679688 19.1875 13.296875 19.039062 13.804688 19.113281 14.054688 19.253906 13.738281 19.535156 13.320312 19.800781 12.792969 19.925781zM14.675781 18.550781C14.652344 18.585938 14.625 18.625 14.597656 18.664062 14.136719 18.316406 13.359375 18.203125 12.496094 18.410156 11.953125 18.539062 11.464844 18.777344 11.121094 19.085938 10.921875 19.265625 10.777344 19.457031 10.695312 19.65625 10.621094 19.621094 10.554688 19.585938 10.496094 19.554688 9.792969 19.164062 9.394531 18.660156 9.304688 18.328125 9.46875 18.316406 9.78125 18.347656 10.019531 18.371094 10.65625 18.4375 11.527344 18.527344 12.40625 18.316406 13.289062 18.105469 14.023438 17.628906 14.5625 17.285156 14.765625 17.152344 15.027344 16.984375 15.179688 16.917969 15.253906 17.257812 15.125 17.886719 14.675781 18.550781zM16.398438 12.398438C16.398438 12.84375 16.042969 13.199219 15.601562 13.199219 15.15625 13.199219 14.800781 12.84375 14.800781 12.398438 14.800781 11.957031 15.15625 11.601562 15.601562 11.601562 16.042969 11.601562 16.398438 11.957031 16.398438 12.398438zM16.398438 12.398438"/>
    <path d="M 15.601562 15.199219 C 17.144531 15.199219 18.398438 13.945312 18.398438 12.398438 C 18.398438 10.855469 17.144531 9.601562 15.601562 9.601562 C 14.054688 9.601562 12.800781 10.855469 12.800781 12.398438 C 12.800781 13.945312 14.054688 15.199219 15.601562 15.199219 Z M 15.601562 10.398438 C 16.703125 10.398438 17.601562 11.296875 17.601562 12.398438 C 17.601562 13.503906 16.703125 14.398438 15.601562 14.398438 C 14.496094 14.398438 13.601562 13.503906 13.601562 12.398438 C 13.601562 11.296875 14.496094 10.398438 15.601562 10.398438 Z M 15.601562 10.398438"/>
    <path d="M 21.601562 5.199219 L 20.472656 5.199219 C 19.769531 5.199219 19.199219 4.628906 19.199219 3.925781 C 19.199219 1.761719 17.4375 0 15.273438 0 L 13.601562 0 C 13.449219 0 13.308594 0.0859375 13.242188 0.222656 L 12.84375 1.019531 C 12.8125 1.078125 12.800781 1.136719 12.800781 1.199219 C 12.800781 1.496094 12.757812 1.566406 12.761719 1.566406 C 12.695312 1.605469 12.425781 1.601562 12.207031 1.601562 L 11.792969 1.601562 C 11.574219 1.601562 11.300781 1.605469 11.246094 1.574219 C 11.246094 1.574219 11.199219 1.503906 11.199219 1.199219 C 11.199219 1.136719 11.1875 1.078125 11.15625 1.019531 L 10.757812 0.222656 C 10.691406 0.0859375 10.550781 0 10.398438 0 L 8.726562 0 C 6.5625 0 4.800781 1.761719 4.800781 3.925781 C 4.800781 4.628906 4.230469 5.199219 3.527344 5.199219 L 2.398438 5.199219 C 1.296875 5.199219 0.398438 6.097656 0.398438 7.199219 C 0.398438 8.304688 1.296875 9.199219 2.398438 9.199219 L 3.199219 9.199219 L 3.199219 16.496094 L 3.191406 16.5 L 3.199219 16.507812 L 3.199219 20.398438 C 3.199219 21.503906 4.097656 22.398438 5.199219 22.398438 L 6.398438 22.398438 L 6.398438 23.078125 C 6.398438 23.585938 6.8125 24 7.324219 24 L 16.679688 24 C 17.1875 24 17.601562 23.585938 17.601562 23.078125 L 17.601562 22.398438 L 18.800781 22.398438 C 19.902344 22.398438 20.800781 21.503906 20.800781 20.398438 L 20.800781 9.199219 L 21.601562 9.199219 C 22.703125 9.199219 23.601562 8.304688 23.601562 7.199219 C 23.601562 6.097656 22.703125 5.199219 21.601562 5.199219 Z M 12 6.800781 C 16.882812 6.800781 20 7.984375 20 8.800781 L 20 9.160156 C 18.53125 8.132812 15.25 7.601562 12 7.601562 C 8.75 7.601562 5.46875 8.132812 4 9.160156 L 4 8.800781 C 4 7.984375 7.117188 6.800781 12 6.800781 Z M 4 10.398438 C 4 9.585938 7.117188 8.398438 12 8.398438 C 12.300781 8.398438 12.59375 8.40625 12.878906 8.414062 L 11.171875 10.121094 C 11.164062 10.109375 11.160156 10.097656 11.152344 10.085938 C 10.859375 9.625 10.523438 9.359375 10.121094 9.273438 C 9.410156 9.121094 8.726562 9.566406 7.929688 10.082031 L 7.339844 10.460938 C 6.535156 10.964844 5.839844 11.398438 5.679688 12.105469 C 5.589844 12.507812 5.6875 12.921875 5.980469 13.382812 C 6.070312 13.519531 6.167969 13.644531 6.273438 13.761719 L 4 15.785156 Z M 6.65625 12.953125 C 6.484375 12.683594 6.421875 12.464844 6.460938 12.28125 C 6.546875 11.898438 7.109375 11.546875 7.765625 11.136719 L 8.363281 10.753906 C 8.949219 10.375 9.460938 10.042969 9.835938 10.042969 C 9.875 10.042969 9.914062 10.046875 9.953125 10.054688 C 10.132812 10.09375 10.304688 10.246094 10.476562 10.515625 C 11.148438 11.570312 10.839844 12.972656 9.785156 13.644531 C 9.273438 13.96875 8.667969 14.078125 8.078125 13.945312 C 7.488281 13.816406 6.980469 13.460938 6.65625 12.953125 Z M 16.800781 23.078125 C 16.800781 23.144531 16.746094 23.199219 16.675781 23.199219 L 7.324219 23.199219 C 7.253906 23.199219 7.199219 23.144531 7.199219 23.078125 L 7.199219 22.398438 L 16.800781 22.398438 Z M 20 20.398438 C 20 21.0625 19.460938 21.601562 18.800781 21.601562 L 5.199219 21.601562 C 4.539062 21.601562 4 21.0625 4 20.398438 L 4 16.851562 L 6.882812 14.289062 C 7.386719 14.621094 7.972656 14.796875 8.570312 14.796875 C 9.136719 14.796875 9.707031 14.644531 10.214844 14.320312 C 10.90625 13.878906 11.382812 13.195312 11.558594 12.394531 C 11.671875 11.894531 11.65625 11.386719 11.519531 10.902344 L 13.957031 8.46875 C 17.695312 8.730469 20 9.699219 20 10.398438 Z M 21.601562 8.398438 L 20.726562 8.398438 C 20.722656 8.390625 20.71875 8.386719 20.714844 8.378906 C 20.679688 8.292969 20.636719 8.207031 20.582031 8.125 C 20.574219 8.113281 20.566406 8.105469 20.558594 8.09375 C 20.5 8.007812 20.429688 7.925781 20.351562 7.847656 C 20.347656 7.84375 20.339844 7.839844 20.335938 7.835938 C 20.25 7.753906 20.15625 7.671875 20.050781 7.59375 C 20.046875 7.59375 20.046875 7.59375 20.046875 7.59375 C 19.941406 7.515625 19.824219 7.441406 19.703125 7.371094 C 19.691406 7.367188 19.679688 7.359375 19.667969 7.351562 C 19.546875 7.285156 19.417969 7.222656 19.28125 7.160156 C 19.265625 7.152344 19.246094 7.144531 19.230469 7.132812 C 19.09375 7.074219 18.953125 7.015625 18.800781 6.960938 C 18.78125 6.953125 18.757812 6.945312 18.734375 6.9375 C 18.585938 6.878906 18.425781 6.828125 18.261719 6.777344 C 18.242188 6.769531 18.21875 6.765625 18.195312 6.757812 C 18.027344 6.707031 17.851562 6.660156 17.671875 6.613281 C 17.65625 6.609375 17.636719 6.605469 17.621094 6.601562 C 17.433594 6.554688 17.238281 6.507812 17.039062 6.46875 C 17.035156 6.464844 17.03125 6.464844 17.027344 6.464844 C 16.824219 6.421875 16.613281 6.382812 16.402344 6.347656 C 16.390625 6.34375 16.382812 6.34375 16.371094 6.34375 C 16.167969 6.308594 15.953125 6.277344 15.742188 6.246094 C 15.714844 6.242188 15.691406 6.238281 15.667969 6.234375 C 15.460938 6.207031 15.25 6.183594 15.039062 6.160156 C 15.003906 6.15625 14.972656 6.152344 14.941406 6.148438 C 14.730469 6.128906 14.519531 6.109375 14.304688 6.089844 C 14.269531 6.089844 14.234375 6.085938 14.199219 6.082031 C 13.984375 6.066406 13.765625 6.054688 13.546875 6.042969 C 13.515625 6.039062 13.484375 6.039062 13.453125 6.035156 C 13.226562 6.027344 13.003906 6.015625 12.777344 6.011719 C 12.753906 6.011719 12.734375 6.011719 12.710938 6.007812 C 12.476562 6.003906 12.238281 6 12 6 C 11.761719 6 11.523438 6.003906 11.289062 6.007812 C 11.265625 6.007812 11.242188 6.007812 11.222656 6.011719 C 10.996094 6.015625 10.769531 6.023438 10.546875 6.035156 C 10.515625 6.039062 10.484375 6.039062 10.453125 6.039062 C 10.230469 6.050781 10.015625 6.066406 9.796875 6.082031 C 9.765625 6.085938 9.730469 6.085938 9.695312 6.089844 C 9.480469 6.109375 9.269531 6.125 9.058594 6.148438 C 9.027344 6.152344 8.992188 6.15625 8.960938 6.160156 C 8.75 6.183594 8.539062 6.207031 8.332031 6.234375 C 8.304688 6.238281 8.28125 6.242188 8.257812 6.246094 C 8.042969 6.273438 7.832031 6.308594 7.625 6.339844 C 7.617188 6.34375 7.605469 6.34375 7.597656 6.347656 C 7.382812 6.382812 7.175781 6.421875 6.972656 6.464844 C 6.96875 6.464844 6.964844 6.464844 6.960938 6.464844 C 6.761719 6.507812 6.566406 6.550781 6.378906 6.597656 C 6.359375 6.605469 6.34375 6.609375 6.324219 6.613281 C 6.144531 6.65625 5.972656 6.707031 5.804688 6.757812 C 5.78125 6.761719 5.757812 6.769531 5.734375 6.777344 C 5.570312 6.828125 5.414062 6.878906 5.261719 6.933594 C 5.242188 6.941406 5.21875 6.953125 5.195312 6.960938 C 5.046875 7.015625 4.90625 7.074219 4.769531 7.132812 C 4.75 7.140625 4.734375 7.148438 4.714844 7.160156 C 4.578125 7.222656 4.449219 7.285156 4.328125 7.351562 C 4.320312 7.359375 4.308594 7.367188 4.296875 7.371094 C 4.171875 7.441406 4.058594 7.515625 3.953125 7.589844 C 3.953125 7.59375 3.949219 7.59375 3.949219 7.59375 C 3.84375 7.671875 3.75 7.75 3.664062 7.832031 C 3.660156 7.839844 3.652344 7.84375 3.648438 7.847656 C 3.566406 7.925781 3.5 8.007812 3.441406 8.09375 C 3.433594 8.105469 3.425781 8.113281 3.417969 8.125 C 3.363281 8.207031 3.320312 8.289062 3.285156 8.378906 C 3.28125 8.386719 3.277344 8.390625 3.273438 8.398438 L 2.398438 8.398438 C 1.738281 8.398438 1.199219 7.863281 1.199219 7.199219 C 1.199219 6.539062 1.738281 6 2.398438 6 L 3.527344 6 C 4.671875 6 5.601562 5.070312 5.601562 3.925781 C 5.601562 2.203125 7.003906 0.800781 8.726562 0.800781 L 10.152344 0.800781 L 10.402344 1.296875 C 10.410156 1.597656 10.457031 1.917969 10.679688 2.140625 C 10.949219 2.40625 11.328125 2.40625 11.800781 2.402344 L 12 2.398438 L 12.199219 2.402344 C 12.671875 2.40625 13.046875 2.40625 13.320312 2.140625 C 13.542969 1.917969 13.589844 1.597656 13.597656 1.296875 L 13.847656 0.800781 L 15.273438 0.800781 C 16.996094 0.800781 18.398438 2.203125 18.398438 3.925781 C 18.398438 5.070312 19.328125 6 20.472656 6 L 21.601562 6 C 22.261719 6 22.800781 6.539062 22.800781 7.199219 C 22.800781 7.863281 22.261719 8.398438 21.601562 8.398438 Z M 21.601562 8.398438"/>
    <path d="M 12.515625 2.917969 L 12 3.433594 L 11.484375 2.917969 L 10.917969 3.484375 L 11.433594 4 L 10.917969 4.515625 L 11.484375 5.082031 L 12 4.566406 L 12.515625 5.082031 L 13.082031 4.515625 L 12.566406 4 L 13.082031 3.484375 Z M 12.515625 2.917969"/>
</svg>

<svg xmlns="http://www.w3.org/2000/svg" width="32" height="32" viewBox="0 0 24 24">
    <path d="M17.637 18.965a.377.377 0 0 0-.117.281c0 .11.039.211.117.285a.395.395 0 0 0 .562 0 .396.396 0 0 0 .121-.285.387.387 0 0 0-.12-.281.41.41 0 0 0-.563 0zm0 0M17.8 15.574a.387.387 0 0 0-.12.281.402.402 0 0 0 .398.403c.106 0 .211-.043.285-.117a.392.392 0 0 0 .117-.286.384.384 0 0 0-.117-.28c-.152-.15-.422-.15-.562 0zm0 0M17.715 17.273a.38.38 0 0 0-.113.278c0 .11.043.21.113.285.078.074.18.117.285.117a.416.416 0 0 0 .285-.117.423.423 0 0 0 .113-.285.42.42 0 0 0-.113-.281.417.417 0 0 0-.57.003zm0 0M16.379 18.18a.423.423 0 0 0-.113.285.403.403 0 0 0 .398.398.403.403 0 0 0 .285-.684.42.42 0 0 0-.57 0zm0 0M15.441 20.117a.384.384 0 0 0-.117.281.4.4 0 0 0 .68.285.412.412 0 0 0 .121-.285.406.406 0 0 0-.117-.28.416.416 0 0 0-.567 0zm0 0M19.117 17.621a.377.377 0 0 0-.117.281c0 .106.04.211.117.282.07.074.176.12.281.12.11 0 .211-.042.282-.116a.412.412 0 0 0 .12-.286.393.393 0 0 0-.116-.28.416.416 0 0 0-.567 0zm0 0M6.32 19.508a.402.402 0 0 0 .285.683.394.394 0 0 0 .282-.12.39.39 0 0 0 .117-.278c0-.11-.043-.211-.117-.285a.412.412 0 0 0-.567 0zm0 0M6.441 16.8c.106 0 .211-.042.282-.116a.394.394 0 0 0 0-.566.41.41 0 0 0-.563 0 .41.41 0 0 0-.12.28c0 .106.046.211.12.282a.38.38 0 0 0 .281.12zm0 0M6.523 18.496a.41.41 0 0 0 .402-.398.411.411 0 0 0-.116-.286.417.417 0 0 0-.57 0 .392.392 0 0 0-.114.286c0 .101.04.207.113.277a.39.39 0 0 0 .285.121zm0 0M7.57 18.723a.417.417 0 0 0 .004.566c.074.07.18.113.285.113.106 0 .211-.043.282-.113a.412.412 0 0 0 .12-.285.403.403 0 0 0-.12-.281.413.413 0 0 0-.57 0zm0 0M8.516 20.66a.397.397 0 0 0 .285.68c.101 0 .207-.04.285-.117a.41.41 0 0 0 .113-.278c0-.11-.043-.21-.113-.285a.417.417 0 0 0-.57 0zm0 0M4.84 18.16a.426.426 0 0 0-.117.285c0 .102.047.207.117.282.074.078.18.117.285.117a.39.39 0 0 0 .281-.117.393.393 0 0 0 .117-.282c0-.11-.043-.21-.117-.28a.412.412 0 0 0-.566-.005zm0 0M15.957 16.719c-.07-.297-.219-.489-.441-.578-.403-.16-.813.105-1.387.472-.516.332-1.156.746-1.906.926-.75.18-1.508.102-2.121.04-.676-.071-1.165-.122-1.45.206-.156.18-.199.418-.129.711.149.629.758 1.3 1.586 1.758a4.23 4.23 0 0 0 2.032.547c.285 0 .566-.031.84-.098.925-.223 1.765-.824 2.359-1.703.527-.781.765-1.656.617-2.281zm-3.164 3.207a2.901 2.901 0 0 1-1.336-.004.92.92 0 0 1 .195-.238c.246-.22.621-.399 1.028-.497.617-.148 1.125-.074 1.375.067a2.908 2.908 0 0 1-1.262.672zm1.883-1.375l-.078.113c-.461-.348-1.239-.46-2.102-.254-.543.13-1.031.367-1.375.676-.2.18-.344.371-.426.57a4.597 4.597 0 0 1-.199-.101c-.703-.39-1.101-.895-1.191-1.227.164-.012.476.02.715.043.636.067 1.507.156 2.386-.055.883-.21 1.617-.687 2.156-1.03.204-.134.465-.302.618-.368.074.34-.055.969-.504 1.633zm0 0M16.398 12.398c0 .446-.355.801-.796.801a.797.797 0 0 1-.801-.8c0-.442.355-.797.8-.797.442 0 .797.355.797.796zm0 0"/>
    <path d="M15.602 15.2a2.8 2.8 0 0 0 0-5.598 2.8 2.8 0 1 0 0 5.597zm0-4.802c1.101 0 2 .899 2 2a1.999 1.999 0 1 1-2-2zm0 0"/>
    <path d="M21.602 5.2h-1.13c-.702 0-1.273-.571-1.273-1.274A3.931 3.931 0 0 0 15.273 0h-1.671a.4.4 0 0 0-.36.223l-.398.797a.37.37 0 0 0-.043.18c0 .296-.043.366-.04.366-.066.04-.335.036-.554.036h-.414c-.219 0-.492.003-.547-.028 0 0-.047-.07-.047-.375a.37.37 0 0 0-.043-.18l-.398-.796a.4.4 0 0 0-.36-.223H8.727A3.931 3.931 0 0 0 4.8 3.926c0 .703-.57 1.273-1.274 1.273H2.398c-1.101 0-2 .899-2 2 0 1.106.899 2 2 2H3.2v7.297l-.008.004.008.008v3.89c0 1.106.899 2 2 2h1.2v.68c0 .508.413.922.925.922h9.356a.924.924 0 0 0 .922-.922v-.68H18.8c1.101 0 2-.894 2-2V9.2h.8c1.102 0 2-.894 2-2 0-1.101-.898-2-2-2zM12 6.8c4.883 0 8 1.184 8 2v.36c-1.469-1.027-4.75-1.558-8-1.558s-6.531.53-8 1.558V8.8c0-.816 3.117-2 8-2zm-8 3.598c0-.812 3.117-2 8-2 .3 0 .594.008.879.016l-1.707 1.707-.02-.035c-.293-.461-.629-.727-1.03-.813-.712-.152-1.395.293-2.192.809l-.59.379c-.805.504-1.5.937-1.66 1.644-.09.403.008.817.3 1.278.09.137.188.262.293.379L4 15.785zm2.656 2.555c-.172-.27-.234-.488-.195-.672.086-.383.648-.734 1.305-1.144l.597-.383c.586-.379 1.098-.711 1.473-.711.039 0 .078.004.117.012.18.039.352.191.524.46a2.267 2.267 0 0 1-.692 3.13 2.247 2.247 0 0 1-1.707.3 2.252 2.252 0 0 1-1.422-.992zm10.145 10.125a.123.123 0 0 1-.125.121H7.324a.123.123 0 0 1-.125-.12v-.68h9.602zM20 20.398c0 .665-.54 1.204-1.2 1.204H5.2c-.66 0-1.2-.54-1.2-1.204v-3.546l2.883-2.563a3.065 3.065 0 0 0 3.332.031 3.042 3.042 0 0 0 1.344-1.925c.113-.5.097-1.008-.04-1.493l2.438-2.433C17.695 8.73 20 9.699 20 10.399zm1.602-12h-.875c-.004-.007-.008-.011-.012-.02a1.435 1.435 0 0 0-.133-.253l-.023-.031a1.73 1.73 0 0 0-.207-.246l-.016-.012a2.988 2.988 0 0 0-.285-.242h-.004a3.717 3.717 0 0 0-.344-.223c-.012-.004-.023-.012-.035-.02a5.949 5.949 0 0 0-.387-.19c-.015-.009-.035-.016-.05-.028a7.57 7.57 0 0 0-.497-.196 6.687 6.687 0 0 0-.472-.16c-.02-.007-.043-.011-.067-.02-.168-.05-.343-.097-.523-.144l-.05-.011a11.62 11.62 0 0 0-.583-.133c-.004-.004-.008-.004-.012-.004a14.782 14.782 0 0 0-.625-.117c-.011-.004-.02-.004-.03-.004-.204-.035-.419-.067-.63-.098l-.074-.012c-.207-.027-.418-.05-.629-.074a6.924 6.924 0 0 1-.098-.012 379.676 379.676 0 0 0-.742-.066c-.215-.016-.433-.027-.652-.039-.031-.004-.063-.004-.094-.008-.226-.008-.45-.02-.676-.023-.023 0-.043 0-.066-.004A42.672 42.672 0 0 0 12 6c-.238 0-.477.004-.71.008-.024 0-.048 0-.067.004a19.19 19.19 0 0 0-.676.023c-.031.004-.063.004-.094.004-.223.012-.437.027-.656.043-.031.004-.067.004-.102.008-.215.02-.425.035-.636.058l-.098.012c-.211.024-.422.047-.629.074l-.074.012c-.215.027-.426.063-.633.094-.008.004-.02.004-.027.008a13.7 13.7 0 0 0-.625.117H6.96c-.2.043-.395.086-.582.133a9.087 9.087 0 0 0-.574.16 11.18 11.18 0 0 0-.543.176c-.02.007-.043.02-.067.027-.148.055-.289.113-.425.172a.357.357 0 0 0-.055.027 5.949 5.949 0 0 0-.387.192 4.015 4.015 0 0 0-.375.238c0 .004-.004.004-.004.004-.105.078-.199.156-.285.238-.004.008-.012.012-.016.016-.082.078-.148.16-.207.246l-.023.031a1.312 1.312 0 0 0-.133.254l-.012.02h-.875a1.2 1.2 0 0 1 0-2.399h1.13c1.144 0 2.074-.93 2.074-2.074A3.13 3.13 0 0 1 8.727.8h1.425l.25.496c.008.3.055.621.278.844.27.265.648.265 1.12.261l.2-.004.2.004c.472.004.847.004 1.12-.261.223-.223.27-.543.278-.844l.25-.496h1.425a3.13 3.13 0 0 1 3.125 3.125c0 1.144.93 2.074 2.075 2.074h1.129a1.2 1.2 0 1 1 0 2.398zm0 0"/>
    <path d="M12.516 2.918L12 3.434l-.516-.516-.566.566.516.516-.516.516.566.566.516-.516.516.516.566-.566L12.566 4l.516-.516zm0 0"/>
</svg>
